public/img/decorations/deco-ring-4.svg

<svg width="121" height="139" viewBox="0 0 121 139" fill="none" xmlns="http://www.w3.org/2000/svg">
<path d="M119.922 68.063C120.277 73.675 119.838 79.55 117.801 85.235C117.563 85.904 117.405 86.662 117.451 87.362C117.64 90.275 116.344 92.641 114.963 95.056C110.934 102.102 106.344 108.785 101.272 115.079C98.026 119.108 94.167 122.68 90.336 126.188C87.039 129.211 83.385 131.84 79.379 133.913C78.354 134.442 77.363 135.124 76.274 135.429C69.585 137.302 62.934 138.853 55.801 137.712C49.449 136.694 43.356 135.17 37.608 132.314C36.061 131.546 34.579 130.638 33.09 129.757C31.6 128.874 30.192 127.835 28.647 127.065C27.172 126.33 26.03 125.339 25.055 124.031C24.284 122.994 23.459 121.9 22.414 121.183C19.254 119.014 16.994 116.026 14.588 113.142C7.67005 104.845 3.42403 95.333 1.46903 84.747C0.778031 81.008 0.869039 77.272 1.31504 73.524C1.48504 72.09 1.62004 70.653 1.76604 69.217C2.41404 62.901 2.85004 56.552 3.77004 50.276C4.58804 44.693 6.43803 39.333 8.38303 34.031C8.97903 32.406 9.63303 30.774 9.96903 29.088C10.901 24.423 13.153 20.336 15.955 16.688C17.844 14.23 20.435 12.114 23.107 10.496C29.673 6.52001 36.625 3.29702 44.224 1.73002C45.214 1.52502 46.206 1.19902 47.203 1.18202C55.576 1.04102 63.988 0.336013 72.271 2.08701C75.074 2.67901 77.841 3.66602 80.464 4.83402C86.148 7.36702 91.45 10.616 96.718 13.925C101.257 16.778 104.527 20.838 107.175 25.311C110.111 30.274 112.523 35.548 115.179 40.679C118.439 46.979 119.57 53.783 119.904 60.763C120.016 63.073 119.922 65.391 119.922 68.063ZM3.35404 77.205C3.64704 80.904 3.50004 84.158 4.23104 87.201C5.71904 93.392 7.95003 99.418 11.52 104.713C14.495 109.123 17.815 113.375 21.469 117.234C29.588 125.804 39.297 131.629 51.031 134.246C59.582 136.152 67.644 135.269 75.685 132.373C78.697 131.288 81.527 129.857 83.929 127.701C86.825 125.099 89.671 122.443 92.577 119.851C100.784 112.526 106.216 103.119 111.993 93.975C112.442 93.263 112.991 92.381 112.934 91.621C112.653 87.819 114.502 84.729 116.002 81.502C116.482 80.471 117.01 79.398 117.166 78.295C117.568 75.445 117.893 72.572 118.039 69.698C118.324 64.052 117.826 58.483 116.672 52.914C115.932 49.34 115.002 45.925 113.358 42.671C111.143 38.297 109.055 33.86 106.881 29.465C103.922 23.486 99.598 18.768 93.834 15.372C90.727 13.541 87.717 11.539 84.557 9.80601C80.239 7.43901 75.725 5.50002 70.801 4.75602C69.09 4.49702 67.348 4.44202 65.635 4.18702C60.455 3.41602 55.256 3.60702 50.073 3.95802C47.202 4.15202 44.272 4.418 41.52 5.189C34.661 7.112 28.272 10.196 22.461 14.311C18.523 17.1 15.387 20.629 13.813 25.392C12.454 29.5 10.653 33.465 9.36603 37.592C7.95003 42.128 6.39103 46.641 6.03403 51.462C5.77803 54.91 5.14704 58.328 4.79404 61.77C4.25004 67.076 3.79904 72.391 3.35404 77.205Z" fill="black"/>
</svg>

<svg width="121" height="139" fill="none" xmlns="http://www.w3.org/2000/svg"><path d="M119.922 68.063c.355 5.612-.084 11.487-2.121 17.172-.238.669-.396 1.427-.35 2.127.189 2.913-1.107 5.279-2.488 7.694a152.814 152.814 0 01-13.691 20.023c-3.246 4.029-7.105 7.601-10.936 11.109-3.297 3.023-6.951 5.652-10.957 7.725-1.025.529-2.016 1.211-3.105 1.516-6.689 1.873-13.34 3.424-20.473 2.283-6.352-1.018-12.445-2.542-18.193-5.398-1.547-.768-3.029-1.676-4.518-2.557-1.49-.883-2.898-1.922-4.443-2.692-1.475-.735-2.617-1.726-3.592-3.034-.771-1.037-1.596-2.131-2.641-2.848-3.16-2.169-5.42-5.157-7.826-8.041C7.67 104.845 3.424 95.333 1.469 84.747c-.691-3.739-.6-7.475-.154-11.223.17-1.434.305-2.871.451-4.307.648-6.316 1.084-12.665 2.004-18.941.818-5.583 2.668-10.943 4.613-16.245.596-1.625 1.25-3.257 1.586-4.943.932-4.665 3.184-8.752 5.986-12.4 1.889-2.458 4.48-4.574 7.152-6.192C29.673 6.52 36.625 3.297 44.224 1.73c.99-.205 1.982-.531 2.979-.548 8.373-.141 16.785-.846 25.068.905 2.803.592 5.57 1.579 8.193 2.747 5.684 2.533 10.986 5.782 16.254 9.091 4.539 2.853 7.809 6.913 10.457 11.386 2.936 4.963 5.348 10.237 8.004 15.368 3.26 6.3 4.391 13.104 4.725 20.084.112 2.31.018 4.628.018 7.3zM3.354 77.205c.293 3.699.146 6.953.877 9.996 1.488 6.191 3.719 12.217 7.289 17.512 2.975 4.41 6.295 8.662 9.949 12.521 8.119 8.57 17.828 14.395 29.562 17.012 8.551 1.906 16.613 1.023 24.654-1.873 3.012-1.085 5.842-2.516 8.244-4.672 2.896-2.602 5.742-5.258 8.648-7.85 8.207-7.325 13.639-16.732 19.416-25.876.449-.712.998-1.594.941-2.354-.281-3.802 1.568-6.892 3.068-10.119.48-1.031 1.008-2.104 1.164-3.207.402-2.85.727-5.723.873-8.597.285-5.646-.213-11.215-1.367-16.784-.74-3.574-1.67-6.989-3.314-10.243-2.215-4.374-4.303-8.811-6.477-13.206-2.959-5.979-7.283-10.697-13.047-14.093-3.107-1.831-6.117-3.833-9.277-5.566-4.318-2.367-8.832-4.306-13.756-5.05-1.711-.259-3.453-.314-5.166-.569-5.18-.771-10.379-.58-15.562-.229-2.871.194-5.801.46-8.553 1.231-6.859 1.923-13.248 5.007-19.059 9.122-3.938 2.789-7.074 6.318-8.648 11.081-1.359 4.108-3.16 8.073-4.447 12.2-1.416 4.536-2.975 9.049-3.332 13.87-.256 3.448-.887 6.866-1.24 10.308-.544 5.306-.995 10.621-1.44 15.435z" fill="#000"/></svg>
